symbolic/22x22/apps/mail.ru-cloud.svg

<svg xmlns="http://www.w3.org/2000/svg" width="22" height="22" version="1">
 <path style="opacity:0.2" d="M 11.498047,3.499998 C 10.288787,3.500923 9.218224,4.013167 8.2773438,4.7226542 7.8639263,4.5990958 7.4394348,4.5005369 7.0019531,4.499998 H 7 c -2.4615921,0 -4.5,2.0384079 -4.5,4.5000012 v 0.0039 0.002 c 1.687e-4,0.05258 0.025336,0.101823 0.027344,0.154296 C 1.6477897,10.077537 0.99980444,11.190512 1,12.5 c 0,2.737734 2.2622655,5 5,5 0.8574733,3.89e-4 1.6565495,-0.275167 2.390625,-0.681641 0.81485,0.401458 1.682559,0.679806 2.605469,0.681641 H 11 11.0039 c 0.799911,-0.0016 1.563755,-0.216469 2.292969,-0.523438 0.69579,0.308731 1.430211,0.522442 2.201172,0.523438 H 15.5 C 18.513877,17.5 21,15.013877 21,12 21,9.3156176 18.992396,7.1547229 16.431641,6.6914042 15.54424,4.8108219 13.668515,3.5020007 11.501953,3.499998 H 11.5 Z"/>
 <path style="fill:#1da6e8" d="M 11.498047,2.9999996 C 10.288787,3.0009246 9.218224,3.5131686 8.2773438,4.2226558 7.8639263,4.0990974 7.4394348,4.0005385 7.0019531,3.9999996 H 7 c -2.4615921,0 -4.5,2.0384079 -4.5,4.5 v 0.00391 0.00195 c 1.687e-4,0.05258 0.025336,0.1018239 0.027344,0.1542968 C 1.6477897,9.5775366 0.99980444,10.690512 1,12 c 0,2.737734 2.2622655,5 5,5 0.8574733,3.89e-4 1.6565495,-0.275167 2.390625,-0.681641 0.81485,0.401458 1.682559,0.679806 2.605469,0.681641 H 11 11.0039 c 0.799911,-0.0016 1.563755,-0.216469 2.292969,-0.523438 0.69579,0.308731 1.430211,0.522442 2.201172,0.523438 H 15.5 C 18.513877,17 21,14.513877 21,11.5 21,8.8156176 18.992396,6.6547245 16.431641,6.1914058 15.54424,4.3108235 13.668515,3.0020023 11.501953,2.9999996 H 11.5 Z"/>
 <circle style="opacity:0.2" cx="6" cy="12.5" r="3"/>
 <circle style="fill:#ffe174" cx="6" cy="12" r="3"/>
 <circle style="opacity:0.2" cx="7" cy="9" r="2.5"/>
 <circle style="fill:#ffd338" cx="7" cy="8.5" r="2.5"/>
 <circle style="opacity:0.2" cx="11.5" cy="9" r="3.5"/>
 <circle style="fill:#ffb822" cx="11.5" cy="8.5" r="3.5"/>
 <circle style="opacity:0.2" cx="15.5" cy="12" r="3.5"/>
 <circle style="fill:#ff7c2d" cx="15.5" cy="11.5" r="3.5"/>
 <circle style="opacity:0.2" cx="11" cy="11.5" r="4"/>
 <circle style="fill:#ff972d" cx="11" cy="11" r="4"/>
 <path style="opacity:0.2;fill:#ffffff" d="M 11.498047,2.9999996 C 10.288787,3.0009246 9.218224,3.5131686 8.2773438,4.2226558 7.8639262,4.0990974 7.4394348,4.0005385 7.0019531,3.9999996 H 7 c -2.4615921,0 -4.5,2.0384079 -4.5,4.5 v 0.00391 0.00195 c 1.687e-4,0.05258 0.025336,0.1018239 0.027344,0.1542968 C 1.6477895,9.5775356 0.99980444,10.690512 1,12 1,12.09214 1.00862,12.182447 1.013672,12.273438 1.083769,11.062535 1.699422,10.023732 2.5273438,9.1601556 2.5253357,9.1076826 2.5001687,9.0584386 2.5,9.0058586 v -0.002 -0.00386 c 0,-2.4615921 2.0384079,-4.5 4.5,-4.5 H 7.00195 C 7.4394348,4.5005385 7.8639262,4.5990975 8.2773438,4.7226558 9.218224,4.0131687 10.288787,3.5009246 11.498047,3.4999996 h 0.002 0.002 c 2.166562,0.002 4.042287,1.310824 4.929688,3.1914062 2.502069,0.4527007 4.461618,2.5300898 4.550781,5.1289062 C 20.98872,11.71373 21,11.608029 21,11.5 21,8.8156176 18.992396,6.6547245 16.431641,6.1914058 15.54424,4.3108235 13.668515,3.0020023 11.501953,2.9999996 H 11.5 Z"/>
</svg>

<svg xmlns="http://www.w3.org/2000/svg" width="22" height="22" version="1"><path style="opacity:.2" d="M11.498 3.5c-1.21 0-2.28.513-3.22 1.223-.414-.124-.839-.222-1.276-.223H7C4.538 4.5 2.5 6.538 2.5 9v.006c0 .052.025.102.027.154C1.647 10.078 1 11.19 1 12.5c0 2.738 2.262 5 5 5 .857 0 1.657-.275 2.39-.682.815.402 1.683.68 2.606.682h.008c.8-.002 1.564-.216 2.293-.523.696.308 1.43.522 2.201.523h.002c3.014 0 5.5-2.486 5.5-5.5 0-2.684-2.008-4.845-4.568-5.309-.888-1.88-2.763-3.189-4.93-3.191H11.5z"/><path style="fill:#1da6e8" d="M11.498 3c-1.21 0-2.28.513-3.22 1.223C7.863 4.099 7.438 4 7.001 4H7C4.538 4 2.5 6.038 2.5 8.5v.006c0 .052.025.102.027.154C1.647 9.578 1 10.69 1 12c0 2.738 2.262 5 5 5 .857 0 1.657-.275 2.39-.682.815.402 1.683.68 2.606.682h.008c.8-.002 1.564-.216 2.293-.523.696.308 1.43.522 2.201.523h.002c3.014 0 5.5-2.486 5.5-5.5 0-2.684-2.008-4.845-4.568-5.309-.888-1.88-2.763-3.189-4.93-3.191H11.5z"/><circle style="opacity:.2" cx="6" cy="12.5" r="3"/><circle style="fill:#ffe174" cx="6" cy="12" r="3"/><circle style="opacity:.2" cx="7" cy="9" r="2.5"/><circle style="fill:#ffd338" cx="7" cy="8.5" r="2.5"/><circle style="opacity:.2" cx="11.5" cy="9" r="3.5"/><circle style="fill:#ffb822" cx="11.5" cy="8.5" r="3.5"/><circle style="opacity:.2" cx="15.5" cy="12" r="3.5"/><circle style="fill:#ff7c2d" cx="15.5" cy="11.5" r="3.5"/><circle style="opacity:.2" cx="11" cy="11.5" r="4"/><circle style="fill:#ff972d" cx="11" cy="11" r="4"/><path style="opacity:.2;fill:#fff" d="M11.498 3c-1.21 0-2.28.513-3.22 1.223C7.863 4.099 7.438 4 7.001 4H7C4.538 4 2.5 6.038 2.5 8.5v.006c0 .052.025.102.027.154C1.647 9.578 1 10.69 1 12c0 .092.009.182.014.273.07-1.21.685-2.25 1.513-3.113-.002-.052-.027-.102-.027-.154V9c0-2.462 2.038-4.5 4.5-4.5h.002c.437 0 .862.1 1.275.223.941-.71 2.012-1.222 3.221-1.223h.004c2.167.002 4.042 1.31 4.93 3.191 2.502.453 4.461 2.53 4.55 5.13.007-.107.018-.213.018-.321 0-2.684-2.008-4.845-4.568-5.309-.888-1.88-2.763-3.189-4.93-3.191H11.5z"/></svg>
